X:1
T:Title
%%score [ 1 2 3 4 ]
L:1/8
Q:1/4=100
M:2/2
K:F
V:1 treble nm="Soprano"
V:2 treble nm="Contralto"
V:3 treble-8 nm="Tenore"
V:4 bass nm="Basso"
V:1
"^O sacrum convivium" z8 | z4 G4 | _e8- | e4 d2 c2 | B2 c2 d4 | d4 c4 | %6
w: |O|sa-||crum\_ * con-|vi- vi-|
 d4"^Giovanni Battista Pergolesi\n(1710 – 1736)\n" d4 |[M:4/4] G4 B4 | c8- | c4 d4- | d2 c2 B2 A2 | %11
w: um!~ In~|quo, in|quo|* Chri-|* * stus *|
 G6 G2 | ^F4 B4 | A8 | G4 z4 | z8 | z8 | z8 | z8 | z4 F4 | d8- | d4 c2 B2 | c4 c4 | c4 B4 | c8 | %25
w: su- mi-|tur, O|sa-|crum|||||o|sa-||crum con-|vi- vi-|um!|
 c8 | B4 c4 | B4 _e2 d2 | ^c4 d4 | d4 ^c4 | d4 d4 | d8 | d4 d4 | c6 c2 | B8 | z4 G4 | c6 B2 | %37
w: In|quo Chri-|stus, in quo|Chri- stus|su- mi-|tur, in|quo|Chri- stus|su- mi-|tur;|re-|co- li-|
 A4 A4 | d6 c2 | B6 B2 | c4 G4 | G6 ^F2 | ^F4 d4- | d4 c4 | B8 | =B8 | c4 c4- | c4 B4 | _A8 | %49
w: tur,~ re|co- *|* li-|tur me-|mo- ri-|a pas-|* si-|o-||nis, pas-|* si-|o-|
 !courtesy!=A8 | B4 B4- | B4 A4 | B8 | z4 B4- | B4 B4 | A4 d4 | d8- | d4 c4 | d8 || d6 d2 | B4 G4 | %61
w: |nis e-||jus;|mens|* im-|ple- tur|gra-|* ti|a:|et fu-|tu- rae|
 _e6 e2 | ^F8 | G6 B2 | A6 d2 | B2 A2 B2 c2 | A4 d4- | d4 B4- | B4 A2 G2 | F2 A2 d4- | d4 ^c4 | %71
w: glo- ri-|ae|no- bis|pi- gnus|da- * * *||||||
 d4 A4 | B4 d4 | c8- | c2 _e2 d2 c2 | B4 G4 | A8 | B4 z4 | A4 A4 | B4 d4 | e4 A4 | D2 F2 E2 D2 | %82
w: * tur,|no- bis|pi-|* * gnus *|da- *||tur|no- bis|pi- gnus,|pi gnus|da * * *|
 G4 A4 | A4 d4- | d4 ^c4 | d4 A4- | A4 B4 | c8 | B8- | B4 A4 | G8 | A4 B4 | A8 | G8 | z8 | z8 | %96
w: |tur, no-|* bis|pi- *|* gnus~|da-||||||tur,|||
 z8 | z8 | f6 f2 | d4 B4 | f4 f2 _e2 | d4 e4 | ^c4 d4 | d4 ^c4 | d8 | z8 | z8 | z8 | z8 | z8 | z8 | %111
w: ||et fu-|tu- rae|glo- ri- ae|no- bis|pi- gnus|da- *|tur,|||||||
 z8 | z8 | G6 G2 | B4 d4 | ^F4 F2 F2 | _e6 d2 | ^c4 =e4 | f6 e2 | d4 ^c2 d2 | e4 A4 | G4 E4 | %122
w: ||et fu-|tu- rae|glo- ri- ae|no- bis|pi- gnus|da- *||* tur,|no- bis|
 D4 ^F4 | G8 | D4 A2 B2 | c4 c4 | c6 d2 | =e6 e2 | d8 | z8 | z8 | z8 | z8 | d6 d2 | B4 G4 | d8- | %136
w: pi- gnus|da-|tur, et fu-|tu- rae|glo- *|* ri|ae,|||||et fu-|tu- rae|glo-|
 d4 c4 | d8 | d4 d4 | c8 | B8 | A4 B4 | c4 B4 | A4 B4 | A4 G4 | ^F4 G4 | A4 G4- | G8 | G4 ^F2 E2 | %149
w: * ri-|ae|no- bis|pi-|gnus|da- *||||||||
 ^F8 | !fermata!^F8 |] %151
w: |tur.|
V:2
 z4 D4 | B8- | B4 A2 G2 | ^F8 | G6 F2 | _E6 E2 | D8 |[M:4/4] z8 | z8 | z8 | z8 | z8 | z8 | z8 | %14
w: O|sa|||crum con-|vi- vi-|um||||||||
 z4 G4 | C8 | D8 | _E4 E4- | E4 D4 | C6 C2 | B,4 B4 | G8- | G4 F4- | F4 F4 | _E4 =E4 | F2 C2 F4 | %26
w: In|quo|Chri-|stus, Chri-|* stus|su- mi-|tur, in|quo|* Chri-|* stus|in quo|Chri- * stus|
 F2 _E2 E4 | D4 G4 | G4 F4 | E6 E2 | D6 E2 | F4 ^F4 | G2 D2 G4- | G4 ^F4 | G4 D4 | G6 F2 | _E4 C4 | %37
w: su- mi- tur,|in quo|Chri- stus|su- mi-|tur, in|quo Chri-|* stus su-|* mi-|tur; re-|co- li-|tur,~ re-|
 F6 _E2 | D8 | G6 F2 | _E4 E4 | D6 D2 | D4 ^F4 | G4 A4 | D8- | D8 | E4 E4 | F4 G4 | C8- | C8 | %50
w: co- *||* li-|tur me-|mo- ri-|a pas-|* si-|o-||nis, pas-|* si-|o-||
 D4 _E4 | C8 | D8 | z4 F4- | F4 F4 | ^F4 D4 | G8- | G4 G4 | ^F8 || z8 | z8 | z8 | z8 | z8 | z8 | %65
w: nis e-||jus;|mens|* im-|ple- tur|gra-|* ti-|a:|||||||
 G6 G2 | F4 D4 | B6 B2 | ^C8 | D6 F2 | E6 A2 | F4 ^F4 | G8- | G2 B2 A2 G2 | A8 | G8 | ^F8 | %77
w: et fu-|tu- rae|glo- ri-|ae|no- bis|pi- gnus|da- tur,|no-|* * bis *|pi-|gnus|da-|
 G4 (D2 E2) | F4 F4 | G8- | G2 B2 A2 G2 | F8 | E8 | D8 | E4 E4 | F8 | E4 D4 | A8 | G4 F4 | E4 F4 | %90
w: * tur, *|no- bis|pi-|* * gnus *|da-||tur,|et fu-|tu-|* rae~|glo-|ri- ae|no- bis|
 F4 E4 | ^F4 G4 | G4 ^F4 | G8 | F4 _E4 | D8 | _E8 | _E4 D4 | C8 | B,8 | z8 | z8 | z8 | A6 A2 | %104
w: pi- gnus,|pi- gnus|da- *|tur|no- bis|pi-|gnus,|pi- gnus|da-|tur,||||et fu-|
 F4 D4 | B8- | B4 A4 | A4 A4- | A4 G4 | G8- | G4 A4 | ^F4 G4- | G4 ^F4 | G8 | z8 | z8 | z8 | z8 | %118
w: tu- rae|glo-|* ri-|ae no-|* bis|pi-|* gnus|da- *||tur,|||||
 D6 D2 | F4 A4 | ^C4 C2 C2 | B6 G2 | ^F4 A4 | B6 A2 | G4 ^F2 G2 | A4 D4 | G4 F4 | E4 G4 | A6 A2 | %129
w: et fu-|tu- rae|glo- ri- ae|no- bis|pi- gnus|da- *||* tur,|no- bis|pi- gnus,|no- bis|
 F4 E2 F2 | G8 | G4 B4 | A4 ^F4 | G4 D2 D2 | D4 B,4 | F4 A4 | G8 | ^F8 | B4 B4 | ^F8 | G8 | %141
w: pi- gnus *|da-|tur, fu-|tu- rae|glo- ri- ae|no- bis|pi- gnus|da-|tur,|no- bis|pi-|gnus|
 ^F4 G4 | A4 G4 | ^F4 G4 | ^F4 E4 | D8- | D8 | D8 | D8 | D8 | !fermata!D8 |] %151
w: da- *|||||||||tur.|
V:3
 z8 | z8 | z8 | z8 | z8 | z8 | z8 |[M:4/4][K:treble-8] z4 G4 | _e8- | e4 d2 c2 | B2 c2 d4 | d4 c4 | %12
w: |||||||O|sa-||crum * con-|vi- vi-|
 d4 d4 | c8 | B8- | B2 A2 c4 | c4 B4 | B4 c4 | A4 B4- | B4 A4 | B8 | z4 _e4 | c4 d4- | d4 d4 | %24
w: um! In|quo|Chri-|* * stus|in quo|Chri- *|stus su-|* mi-|tur,|in|quo Chri-|* stus,|
 c4 G4 | A8 | B4 f4- | f4 _e2 B2 | A4 A4 | A6 A2 | A6 G2 | F4 A2 A2 | B4 B4 | c4 d2 d2 | d8 | z8 | %36
w: in quo|Chri-|stus, in|* quo *|Chri- stus|su- mi-|tur, in|quo, in quo|Chri- stus~|su- * mi-|tur;||
 z8 | z4 F4 | B6 A2 | G4 G4 | A8- | A4 A4 | A8 | z8 | z4 G4- | G4 G4 | G4 G4 | z8 | z4 F4- | %49
w: |re-|co- li-|tur me-|mo-|* ri-|a||pas-|* si-|o- nis,||pas-|
 F4 F4 | F4 G4 | F8 | F8 | z4 d4- | d4 d4 | d4 B4 | B8 | _e6 e2 | A8 || z8 | z8 | z8 | z8 | z8 | %64
w: * si-|o nis~|e-|jus;|mens|* im-|ple- tur|gra-|* ti-|a:||||||
 z8 | z8 | z8 | z8 | z8 | z8 | z8 | d6 d2 | B4 G4 | _e6 e2 | ^F8 | G6 B2 | A6 d2 | d8- | d8 | %79
w: |||||||et~ fu-|tur- ae|glo- ri-|ae|no- bis|pi- gnus|da-||
 d4 B4- | B2 d2 ^c2 B2 | A4 d4 | d4 ^c4 | d4 A4 | G4 A4 | A6 B2 | c4 G4 | F8 | G4 d4 | c8- | %90
w: tur, no-|* * bis *|pi- gnus|da- *|* tur,|et fu-|tu- rae|glo- ri-|ae|no- bis|pi-|
 c4 G4 | d8- | d4 d4 | B4 G4 | c8 | B8 | G4 c4 | A4 B4 | B4 A4 | B8 | c4 A4 | B4 B4 | A4 G2 F2 | %103
w: * gnus,~|no-|* bis|pi- gnus|da-|tur,|no- bis|pi- gnus|da- *|tur,|no- bis|pi- gnus|da- * *|
 E8 | D4 d4 | B4 G4 | _e8- | e4 d4 | d4 d4- | d4 c4 | G4 c4 | c4 B4 | A8 | B8 | z8 | z8 | z8 | z8 | %118
w: |tur, fu-|tu- rae|glo-|* ri-|ae no-|* bis|pi- *|gnus da-||tur|||||
 z8 | z8 | z8 | z8 | z8 | G6 G2 | B4 d4 | ^F4 F2 F2 | _e6 d2 | ^c4 =e4 | f6 e2 | d4 ^c2 d2 | %130
w: |||||et~ fu-|tu- rae|glo- ri- ae|no- bis|pi- gnus|da- *||
 e4 A4 | d8 | z4 c4 | B4 G4 | B6 B2 | A8 | G4 _e4 | A4 d4 | d4 B4 | c4 A4 | d8 | d8- | d8 | d8 | %144
w: * tur,|et|fu-|tu- rae|glo- ri-|ae|no- bis|pi- gnus,|no- bis|pi- *|gnus|da-|||
 d8 | d4 B4 | c4 B4 | A8- | A8 | A8 | !fermata!A8 |] %151
w: ||||||tur.|
V:4
 z8 | z8 | z8 | z8 | z8 | z8 | z4 D,4 |[M:4/4] B,8- | B,4 A,2 G,2 | ^F,8 | G,6 F,2 | _E,8 | %12
w: ||||||O|sa-|||||
 D,4 G,4 | G,4 ^F,4 |"^Copyright © 2007 - Gerd Eichler" G,4 G,,4 | A,,8 | B,,8 | _E,8 | F,4 B,,4 | %19
w: crum con-|vi- vi-|um! In|quo,|in|quo|Chri- stus|
 F,6 F,2 | B,,4 G,,4 | _E,8- | E,4 D,2 C,2 | D,4 G,4 | C,4 B,,4 | A,,6 F,,2 | G,,4 A,,4 | %27
w: su- mi-|tur, o|sa-||crum con-|vi- vi-|um! In|quo, *|
 B,,4 G,,4 | A,,4 D,4 | A,,6 A,,2 | F,6 E,2 | D,4 C,4 | B,,4 B,,4 | A,,6 A,,2 | G,,8 | z8 | z8 | %37
w: in quo|Chri- stus|su- mi-|tur, in|quo *|Chri- stus~|su- mi-|tur;|||
 z8 | z4 B,,4 | _E,6 D,2 | C,4 C,4 | D,6 D,2 | D,8 | E,6 ^F,2 | G,8 | F,4 E,2 D,2 | C,8 | D,6 E,2 | %48
w: |re-|~co- li-|tur me-|mo- ri-|a|pas- si-|o-||nis,|pas- si-|
 F,8 | _E,4 D,2 C,2 | B,,4 _E,4 | F,8 | B,,8 | z4 B,,4- | B,,4 B,4 | ^F,4 G,4 | _E,8- | E,4 _E,4 | %58
w: o-||* nis|e-|jus;|mens|* im-|ple- tur|gra-|* ti-|
 D,8 || z8 | z8 | z8 | z8 | z8 | z8 | z8 | z8 | z8 | z8 | z8 | z8 | z8 | z8 | z8 | z8 | z8 | z8 | %77
w: a:|||||||||||||||||||
 G,6 G,2 | F,4 D,4 | B,6 B,2 | ^C,8 | D,6 F,2 | E,6 A,2 | F,2 E,2 F,2 G,2 | E,8 | D,8 | C,4 B,,4 | %87
w: et fu-|tu- rae|glo- ri-|ae,|no- bis|pi- gnus|da * * *||tur,|no- bis|
 A,,8 | B,,8 | C,4 F,4 | C,8- | C,4 B,,2 C,2 | D,8 | G,,8 | A,,8 | B,,8 | _E,4 C,4 | F,4 B,,4 | %98
w: pi-|gnus,|no- bis|pi-|* gnus *|da-|tur,|no-|bis|pi- gnus,|pi- gnus|
 F,6 F,2 | B,6 B,2 | A,4 F,4 | B,4 G,4 | A,4 D,4 | A,,6 A,,2 | D,8 | G,8 | C,8 | F,8 | B,,8 | %109
w: da- tur,|et fu-|tu- rae|glo- *||* ri-|ae,|no-|bis|pi-|gnus,|
 _E,8 | C,8 | D,4 G,4 | D,8 | G,,8 | z8 | z8 | z8 | z8 | z8 | z8 | z8 | z8 | z8 | z8 | z8 | z8 | %126
w: no-|bis|pi- gnus|da-|tur,|||||||||||||
 z8 | z8 | D,6 D,2 | F,4 A,4 | ^C,4 C,2 C,2 | B,6 G,2 | ^F,4 A,4 | B,8 | G,4 G,4 | F,4 D,4 | %136
w: ||et fu-|tu- rae|glo- ri- ae|no- bis|pi- gnus|da-|tur, fu-|tu rae|
 _E,6 E,2 | D,8 | G,4 G,4 | A,8 | G,8 | D,8- | D,8 | D,8 | D,8 | D,8 | D,8 | D,8 | D,8 | D,8 | %150
w: glo- ri-|ae|no- bis|pi-|gnus|da-|||||||||
 !fermata!D,8 |] %151
w: tur.|

